icons/mobile/24/svg/other-device-shortcuts-24.svg

<svg width="24" height="24" viewBox="0 0 24 24" fill="none" xmlns="http://www.w3.org/2000/svg">
<g clip-path="url(#clip0_5806_904)">
<path fill-rule="evenodd" clip-rule="evenodd" d="M18.6631 13.1149C18.944 12.9146 19.3347 12.9796 19.5352 13.2604C19.7356 13.5414 19.6696 13.932 19.3887 14.1325C19.3769 14.1409 19.3652 14.1495 19.3535 14.1579L20.4307 15.234L21.8008 15.3551C22.393 15.4077 22.8473 15.782 23.0703 16.234C23.2931 16.6859 23.3159 17.2838 22.9502 17.7721C22.5906 18.2515 22.238 18.6531 21.9043 19.0123L23.8184 20.9342C24.0615 21.1788 24.0608 21.5746 23.8164 21.818C23.5719 22.0614 23.1762 22.0602 22.9326 21.8161L21.0186 19.8952C20.5947 20.2883 20.1683 20.6535 19.7549 20.9625C19.2629 21.3296 18.664 21.2959 18.2188 21.067C17.7747 20.8387 17.4091 20.3842 17.3574 19.8004L17.2363 18.4293L16.1592 17.3522C16.1507 17.364 16.1422 17.3756 16.1338 17.3873C15.9335 17.6683 15.5438 17.7338 15.2627 17.5338C14.9817 17.3335 14.9159 16.9428 15.1162 16.6618C15.5429 16.063 16.078 15.405 16.7422 14.7409C17.2606 14.2225 17.8957 13.6623 18.6631 13.1149ZM18.3652 14.9391C18.0948 15.173 17.8482 15.4025 17.626 15.6247C17.3773 15.8733 17.1499 16.1225 16.9395 16.3659L18.4424 17.8668L18.4619 18.0934L18.6025 19.6901L18.6201 19.7692C18.6489 19.8457 18.7087 19.9138 18.79 19.9557C18.8972 20.0108 18.9698 19.989 19.0068 19.9616L19.3027 19.7321C19.6029 19.4915 19.915 19.2176 20.2314 18.9215L20.9404 18.2155C21.2698 17.8634 21.6064 17.4791 21.9492 17.0221C21.9832 16.9765 22.0037 16.8955 21.9502 16.7868C21.8965 16.6778 21.7982 16.6097 21.6914 16.6002L20.0947 16.4596L19.8691 16.4401L19.708 16.2799L18.3652 14.9391Z" fill="black"/>
<path d="M3.66602 4.4479C7.83991 3.85791 12.1227 3.85506 16.3066 4.44301C17.8426 4.659 19.0009 5.99171 19.001 7.54262V11.5055C18.567 11.5105 18.1499 11.6432 17.7949 11.8952C17.608 12.0271 17.4319 12.1761 17.251 12.317V7.54165C17.2509 6.85886 16.7412 6.27063 16.0635 6.17446C14.0595 5.89346 12.019 5.75063 10.001 5.75063C7.97206 5.75063 5.92308 5.89536 3.91016 6.17934C3.24919 6.27234 2.75102 6.85676 2.75098 7.53872V14.4596C2.75098 15.1426 3.26145 15.7308 3.93945 15.8268C7.17531 16.2807 10.4755 16.349 13.7354 16.07C13.5324 16.4699 13.4543 16.9227 13.5303 17.3756C13.6232 17.9355 13.9298 18.4265 14.3926 18.7555L14.3916 18.7575C14.4646 18.8094 14.5509 18.8347 14.6289 18.8766H0.875C0.392 18.8766 0 18.4846 0 18.0016C0.000112984 17.5187 0.39207 17.1266 0.875 17.1266H2.5127C1.60487 16.5716 1.00098 15.5755 1.00098 14.4606V7.53969C1.00104 5.99075 2.14606 4.66189 3.66602 4.4479Z" fill="black"/>
</g>
<defs>
<clipPath id="clip0_5806_904">
<rect width="24" height="24" fill="white"/>
</clipPath>
</defs>
</svg>

<!-- This Source Code Form is subject to the terms of the Mozilla Public
   - License, v. 2.0. If a copy of the MPL was not distributed with this
   - file, You can obtain one at http://mozilla.org/MPL/2.0/. -->
<svg xmlns="http://www.w3.org/2000/svg" width="24" height="24" fill="none" viewBox="0 0 24 24">
    <g fill="#000">
        <path fill-rule="evenodd" d="M18.663 13.115a.626.626 0 0 1 .726 1.018l-.035.025 1.077 1.076 1.37.121a1.58 1.58 0 0 1 1.27.879c.222.452.245 1.05-.12 1.538-.36.48-.713.881-1.047 1.24l1.914 1.922a.625.625 0 0 1-.885.882l-1.914-1.92c-.424.392-.85.758-1.264 1.066-.492.368-1.091.334-1.536.105a1.59 1.59 0 0 1-.862-1.267l-.12-1.37-1.078-1.078-.025.035a.625.625 0 1 1-1.018-.725 15.2 15.2 0 0 1 3.547-3.547m-.298 1.824q-.405.351-.739.686-.372.374-.687.74l1.503 1.502.02.226.14 1.597.018.08a.35.35 0 0 0 .17.186c.107.055.18.033.217.006l.296-.23c.3-.24.612-.514.928-.81l.71-.707c.329-.352.665-.736 1.008-1.193.034-.045.055-.127.001-.235a.32.32 0 0 0-.259-.187l-1.596-.14-.226-.02-.161-.16z" clip-rule="evenodd" />
        <path d="M3.666 4.448a45.4 45.4 0 0 1 12.64-.005 3.145 3.145 0 0 1 2.695 3.1v3.962a2.1 2.1 0 0 0-1.206.39c-.187.132-.363.281-.544.422V7.542a1.39 1.39 0 0 0-1.187-1.368A44 44 0 0 0 10 5.751a44 44 0 0 0-6.09.428 1.37 1.37 0 0 0-1.16 1.36v6.92c0 .684.51 1.272 1.188 1.368 3.236.454 6.537.522 9.796.243a2.106 2.106 0 0 0 .657 2.686v.002c.073.051.159.077.237.119H.875a.875.875 0 0 1 0-1.75h1.638A3.14 3.14 0 0 1 1 14.46V7.54c0-1.55 1.145-2.878 2.665-3.092" />
    </g>
</svg>
